X:1
T:Title
%%score { ( 1 3 5 ) | ( 2 4 ) }
L:1/8
Q:1/4=100
M:6/8
K:F
V:1 treble nm="Grand Piano"
V:3 treble 
V:5 treble 
V:2 bass 
V:4 bass 
V:1
 CDE FGA | c2 c c3 | dcA FED | E3 .E3 | CE[DF] [EG][FA][GB] | [EBd]2 [EBd] [EBd]3 | %6
w: Charles~Gabriel * * * * *||||||
 [Be][Bd][GB] GAB | c3 .c3 | CDE FGA | c2 c c3 | [^Fd][Fc][FA] [Fd][Fc][DFA] | [DAc]3 .[DGB]3 | %12
w: ||||||
 [DG=B][DGA][=B,G] [CGc]2 [CGc] | [Gd][G=B]G .[Ge]3 | [^Fd][FA][Fc] =BAB | [Ec]6 | c3 d3 | .A6 | %18
w: ||||||
 c3 d3 | .B6 | [Bd]3 [Be]3 | [Bd]3 [Be]3 | [Bd]2 [Be] [Bd]2 [Be] | [Bd]2 G A2 B | c3 d3 | .A6 | %26
w: ||||||||
 c3 d3 | .B6 | .=B6 | .c6 | d3 d3 | e2 e e2 c | f6 | .f6 |[M:7/8] [FAc]2 [CFA] [=B,FG]3 [_B,EG] | %35
w: |||||||||
[M:3/4] [F,A,CF]6 | CD EF GA | c2 c c3 | dc AF ED | E3 .E3 | CE [DF][EG] [FA][GB] | %41
w: ||||||
 [EBd]2 [EBd] [EBd]3 | [Be][Bd] [GB]G AB | c3 .c3 | CD EF GA | c2 c c3 | %46
w: |||||
 [^Fd][Fc] [FA][Fd] [Fc][DFA] | [DAc]3 .[DGB]3 | [DG=B][DGA] [=B,G] [CGc]2 [CGc] | %49
w: |||
 [Gd][G=B] G .[Ge]3 | [^Fd][FA] [Fc]=B AB | [Ec]6 | c3 d3 | A4 z2 | c3 d3 | B4 z2 | [Bd]3 [Be]3 | %57
w: ||||||||
 [Bd]3 [Be]3 | [Bd]2 [Be] [Bd]2 [Be] | [Bd]2 G A2 B | c3 d3 | A4 z2 | c3 d3 | B4 z2 | =B4 z2 | %65
w: ||||||||
 c4 z2 | d3 d3 | e2 e e2 c | f6 | f4 z2 |[M:7/8] [FAc]2 [F=Bd] [G_Be]3 [FAf] |[M:3/4] [FAf]6 |] %72
w: |||||||
V:2
 [F,A,][F,A,C][F,A,C] [F,A,C][F,B,C][F,CF] | [F,A,F]2 [F,A,F] [F,A,F]3 | %2
 [F,A,F][F,A,F][F,CF] [A,C][A,C][A,C] | [G,B,C]3 .[G,B,C]3 | [C,E,][C,G,C][C,G,] [C,C][C,C][C,C] | %5
 C,2 C, C,3 | [C,C][C,C][C,C][K:treble] [B,CE][A,CF][G,CE] | [F,A,F]3 .[F,A,F]3 | %8
 [F,A,][F,A,C][F,A,C] [F,A,C][F,B,C][F,CF] | [F,A,F]2 [F,A,F] [F,A,F]3 | %10
 [D,A,][D,A,][D,D] [D,A,][D,A,]D, | G,3 .G,3 | F,F,F, E,2 E, | [D,=B,][D,B,][D,B,] .[C,C]3 | %14
 [D,C][D,D][D,D][K:treble] [G,DF][G,DF][G,F] | [C,G,]6 | [F,A,F]2 [F,A,] [C,A,]2 [C,A,] | %17
 [F,CF]2 [F,C] [C,C][C,C][C,C] | [F,A,F]2 [F,A,] [C,A,]2 [C,A,] | z3 C3- | C6- | C6 | %22
 [G,C]2 [G,C] [E,C]2 [E,C] | [G,C]2 [B,CE] [A,CF]2 [G,CE] | %24
 [F,A,F]2[K:bass] [F,A,] [C,A,]2 [C,A,] | [F,CF]2 [F,C] [C,C][C,C][C,C] | %26
 [F,A,F]2 [F,A,] [D,A,]2 [D,D] | [G,DG]2 [G,D] [G,D][G,DG][G,DG] | [_A,DF]2 [A,D] [A,D]2 [A,DF] | %29
 [A,CF]2 [A,C] [A,C][_A,DF][=A,CF] | [B,F]3 [G,=B,G]3 | [CG]2 [CG] [B,CG]2 [B,CE] | %32
 [A,CF]2[K:bass] [A,C] [A,C]2 A, | B,2 B, B,B,B, |[M:7/8] C2 C, D,3 C, |[M:3/4] F,,6 | %36
 [F,A,][F,A,C] [F,A,C][F,A,C] [F,B,C][F,CF] | [F,A,F]2 [F,A,F] [F,A,F]3 | %38
 [F,A,F][F,A,F] [F,CF][A,C] [A,C][A,C] | [G,B,C]3 .[G,B,C]3 | %40
 [C,E,][C,G,C] [C,G,][C,C] [C,C][C,C] | C,2 C, C,3 | %42
 [C,C][C,C] [C,C][K:treble][B,CE] [A,CF][G,CE] | [F,A,F]3 .[F,A,F]3 | %44
 [F,A,][F,A,C] [F,A,C][F,A,C] [F,B,C][F,CF] | [F,A,F]2 [F,A,F] [F,A,F]3 | %46
 [D,A,][D,A,] [D,D][D,A,] [D,A,]D, | G,3 .G,3 | F,F, F, E,2 E, | [D,=B,][D,B,] [D,B,] .[C,C]3 | %50
 [D,C][D,D] [D,D][K:treble][G,DF] [G,DF][G,F] | [C,G,]6 | [F,A,F]2 [F,A,] [C,A,]2 [C,A,] | %53
 [F,CF]2 [F,C][C,C] [C,C][C,C] | [F,A,F]2 [F,A,] [C,A,]2 [C,A,] | z2 z C3- | C6- | C6 | %58
 [G,C]2 [G,C] [E,C]2 [E,C] | [G,C]2 [B,CE] [A,CF]2 [G,CE] | %60
 [F,A,F]2[K:bass] [F,A,] [C,A,]2 [C,A,] | [F,CF]2 [F,C][C,C] [C,C][C,C] | %62
 [F,A,F]2 [F,A,] [D,A,]2 [D,D] | [G,DG]2 [G,D][G,D] [G,DG][G,DG] | [_A,DF]2 [A,D] [A,D]2 [A,DF] | %65
 [A,CF]2 [A,C][A,C] [_A,DF][=A,CF] | [B,F]3 [G,=B,G]3 | [CG]2 [CG] [B,CG]2 [B,CE] | %68
 [A,CF]2[K:bass] [A,C] [A,C]2 A, | B,2 B,B, B,B, |[M:7/8] C2 G, C3 F, |[M:3/4] F,6 |] %72
V:3
 x6 | x6 | x6 | x6 | x6 | x6 | x6 | x6 | x6 | x6 | x6 | x6 | x6 | x6 | x6 | x6 | z2 F F2 F | %17
 z2 F F[FG][FA] | z2 F F2 F | z2 E E[FA][GB] | x6 | x6 | x6 | x6 | z2 F F2 F | z2 F F[FG][FA] | %26
 z2 F ^F2 F | z2 G GAB | z2 F z _B=B | z2 F F=Bc | x6 | x6 | z2 F F2 [F_ef] | %33
 [Fd]2 [Fd] [Fd][Fce][FBd] |[M:7/8] x7 |[M:3/4] x6 | x6 | x6 | x6 | x6 | x6 | x6 | x6 | x6 | x6 | %45
 x6 | x6 | x6 | x6 | x6 | x6 | x6 | z2 F F2 F | z2 FF [FG][FA] | z2 F F2 F | z2 EE [FA][GB] | x6 | %57
 x6 | x6 | x6 | z2 F F2 F | z2 FF [FG][FA] | z2 F ^F2 F | z2 GG AB | z2 .F2 _B=B | z2 FF =Bc | x6 | %67
 x6 | z2 F F2 [F_ef] | [Fd]2 [Fd][Fd] [Fce][FBd] |[M:7/8] x7 |[M:3/4] x6 |] %72
V:4
 x6 | x6 | x6 | x6 | x6 | x6 | x3[K:treble] x3 | x6 | x6 | x6 | x6 | x6 | x6 | x6 | %14
 x3[K:treble] x3 | x6 | x6 | x6 | x6 | [G,CE]2 [G,C] C,C,C, | G,2 G, C,2 C, | G,2 G, C,2 C, | x6 | %23
 x6 | x2[K:bass] x4 | x6 | x6 | x6 | x6 | x6 | x6 | x6 | x2[K:bass] x4 | x6 |[M:7/8] x7 | %35
[M:3/4] x6 | x6 | x6 | x6 | x6 | x6 | x6 | x3[K:treble] x3 | x6 | x6 | x6 | x6 | x6 | x6 | x6 | %50
 x3[K:treble] x3 | x6 | x6 | x6 | x6 | [G,CE]2 [G,C]C, C,C, | G,2 G, C,2 C, | G,2 G, C,2 C, | x6 | %59
 x6 | x2[K:bass] x4 | x6 | x6 | x6 | x6 | x6 | x6 | x6 | x2[K:bass] x4 | x6 |[M:7/8] x7 | %71
[M:3/4] x6 |] %72
V:5
 x6 | x6 | x6 | x6 | x6 | x6 | x6 | x6 | x6 | x6 | x6 | x6 | x6 | x6 | x6 | x6 | x6 | x6 | x6 | %19
 x6 | x6 | x6 | x6 | x6 | x6 | x6 | x6 | x6 | z3 .F3 | x6 | x6 | x6 | x6 | x6 |[M:7/8] x7 | %35
[M:3/4] x6 | x6 | x6 | x6 | x6 | x6 | x6 | x6 | x6 | x6 | x6 | x6 | x6 | x6 | x6 | x6 | x6 | x6 | %53
 x6 | x6 | x6 | x6 | x6 | x6 | x6 | x6 | x6 | x6 | x6 | z2 z .F3 | x6 | x6 | x6 | x6 | x6 | %70
[M:7/8] x7 |[M:3/4] x6 |] %72

